Betancourt20/Pinocchio_examples/JacoKinova/workspaceanalysis_loop/qs_traj3.csv
Index,q1,q2,q3,q4,q5,q6
0,-0.018434629180973616,3.2003838348983913,1.5009715863403577,3.1454628798430626,1.8994122485580334,-0.019318367704252357
1,-0.050467517264122616,3.201123691166772,1.5026499921618062,3.1521866798542475,1.8984741601810693,-0.05288692784233083
2,-0.09230259646399568,3.202182711022777,1.504724705006676,3.1609582317963048,1.8974821578224805,-0.09672861554176186
3,-0.14094901254079045,3.2036298825034386,1.5070564823725534,3.171126470932754,1.8966363019644132,-0.1477049985696366
4,-0.1940463138780775,3.205640943026349,1.509706679771416,3.1821638024947183,1.8960024635311281,-0.20333281302479306
5,-0.24973328303493253,3.208457026069544,1.5128890409131508,3.193649638488752,1.8955290926191668,-0.2616493786249665
6,-0.30654470238161174,3.212336690657743,1.51690006822439,3.2052577957895716,1.8950858519732057,-0.3211073819144837
7,-0.36332799328257276,3.217516561609452,1.522055063222458,3.2167426555197975,1.8945053760423587,-0.3804891615978971
8,-0.4191765138913505,3.224184903962294,1.528640692260174,3.22792362487305,1.8936177538612975,-0.43883699451392866
9,-0.47337783400911715,3.2324673588726593,1.5368859232834513,3.2386695643429793,1.8922734942414943,-0.49539811116685645
10,-0.5253751374052497,3.242422278981672,1.5469487221584879,3.2488850757434373,1.8903550738145902,-0.5495831195074548
11,-0.5747393826300002,3.2540429217474496,1.5589143033873152,3.258499850010424,1.887779591023879,-0.6009358365541557
12,-0.6211496008447137,3.267264173234981,1.5728007493066827,3.267461384760764,1.88449582259989,-0.6491120510591714
13,-0.6643788237040298,3.28197198772694,1.5885685674556542,3.275730692014555,1.8804786648562457,-0.6938646732790794
14,-0.7042835028558321,3.298014166998065,1.6061317140591034,3.2832802451245198,1.8757231187822772,-0.7350329867332642
15,-0.7407947664554979,3.315211445482786,1.625368499773419,3.2900933245228323,1.870239071152129,-0.7725341543719393
16,-0.7739103582791971,3.3333681190859386,1.6461315027131473,3.2961640194445927,1.8640473709014673,-0.8063556291302806
17,-0.8036865637093171,3.3522816810645653,1.6682561208296034,3.301497330977427,1.857177187911394,-0.8365476005320807
18,-0.8302298119736866,3.371751120866858,1.6915677186613671,3.306109028089552,1.8496643645124962,-0.8632150300755725
19,-0.8536879383711413,3.3915837041532475,1.7158874967660898,3.3100250892941334,1.8415503785706495,-0.8865091635172669
20,-0.8742412877986956,3.4116001840453425,1.7410372759341841,3.313280699412267,1.832881568361567,-0.9066186470415082
21,-0.8920939462438117,3.4316384951258523,1.7668433823657452,3.3159188610878245,1.8237083656781532,-0.9237605179696451
22,-0.9074654138661742,3.4515560548877735,1.7931397793117076,3.3179887306635787,1.8140843992961095,-0.9381714004719334
23,-0.9205830019750767,3.471230845646351,1.8197705420589332,3.319543807245643,1.8040654352803647,-0.9500992308001307
24,-0.9316751688336539,3.4905614772867226,1.8465917336753912,3.3206401015707763,1.7937081967447754,-0.959795785735145
25,-0.9409659262393804,3.5094664413484944,1.8734727163697982,3.3213343953856165,1.7830691481138379,-0.9675102122812124
26,-0.9486703662937174,3.5278827632185914,1.9002969280044604,3.321682678408949,1.772203340445016,-0.9734836728589576
27,-0.9549912862913936,3.545764244744563,1.926962160931856,3.3217388230559295,1.7611634025846383,-0.9779451406106366
28,-0.9601168346772184,3.5630794674126682,1.9533803946983173,3.3215535303069834,1.74999873730104,-0.9811083116677193
29,-0.9642190639008218,3.5798096992878583,1.9794772492948232,3.321173555855158,1.7387549509863753,-0.9831695491921356
30,-0.9674532553909463,3.595946819912429,2.005191137080798,3.3206412056156944,1.727473516957081,-0.9843067385785028
31,-0.9699578749475675,3.6114913486595137,2.0304721968150283,3.3199940747252192,1.7161916501127723,-0.9846789132788757
32,-0.9718550202788698,3.6264506354702615,2.0552810918367554,3.3192649944938517,1.7049423565178043,-0.9844265039826924
33,-0.9732512329649311,3.6408372497131514,2.079587747199064,3.318482147021142,1.6937546151587255,-0.9836720675068767
34,-0.9742385620201696,3.654667583759568,2.1033700891308893,3.3176693065549663,1.68265364926772,-0.9825213627937796
35,-0.9748957832202495,3.6679606729485044,2.1266128365252324,3.3168461691505993,1.6716612492016107,-0.9810646571659661
36,-0.9752896957840352,3.6807372227184576,2.14930638000758,3.3160287367219046,1.660796115934763,-0.979378164132788
37,-0.9754764346846997,3.6930188263720947,2.1714457709309407,3.3152297272089855,1.650074202097088,-0.9775255327507091
38,-0.9755027520501399,3.7048273526309448,2.193029831293131,3.314458988535856,1.6395090349750467,-0.9755593264659695
39,-0.9754072343762986,3.716184480211704,2.214060386537317,3.3137238997288554,1.629112012284612,-0.9735224456271214
40,-0.9752214334445145,3.7271113565128604,2.2345416165612133,3.3130297476488235,1.618892666513688,-0.9714494619456369
41,-0.9749708979147164,3.7376283586033012,2.2544795158414273,3.312380072070353,1.6088588972007127,-0.9693678449097655
42,-0.9746760996928592,3.747754936600992,2.2738814510396335,3.3117769752665107,1.5990171728270048,-0.967299069547315
43,-0.9743532545517725,3.7575095218589873,2.2927558033945634,3.311221394865384,1.5893727052985969,-0.9652596021618397
44,-0.9740150403656427,3.766909484865539,2.31111168321816,3.3107133406278337,1.5799296005430443,-0.9632617659937048
45,-0.9736712189554494,3.775971130221493,2.328958704548677,3.3102520970711926,1.5706909887897003,-0.9613144924793856
46,-0.9733291691816269,3.784709718354393,2.3463068091745445,3.309836394653426,1.5616591378371287,-0.9594239661985119
47,-0.9729943397845444,3.7931395056902906,2.363166130606058,3.309464552650598,1.5528355521889852,-0.9575941729884061
48,-0.9726706307576529,3.8012737967965955,2.3795468899773025,3.3091345970068744,1.5442210604644684,-0.9558273613179213
49,-0.9723607119056406,3.8091250035260087,2.3954593172032146,3.3088443563929526,1.5358158930278107,-0.9541244270565549
50,-0.9720662868233102,3.8167047074450577,2.4109135919345306,3.3085915395408545,1.5276197513703766,-0.9524852314233518
51,-0.9717883099346485,3.8240237228447134,2.4259197999169633,3.3083737966801188,1.519631870435148,-0.9509088612897669
52,-0.9715271635355073,3.831092158434323,2.4404879012627734,3.3081887676189994,1.5118510747993859,-0.9493938402467107
53,-0.9712828010464639,3.83791947644474,2.4546277078895935,3.3080341187201525,1.504275829421779,-0.9479382980071075
54,-0.9710548619467595,3.8445145483422616,2.4683488679875945,3.307907570730882,1.4969042855060528,-0.9465401048581669
55,-0.970842763154215,3.850885706709516,2.4816608558602753,3.307806919154438,1.4897343219231731,-0.9451969770415029
56,-0.9706457709577447,3.8570407931072923,2.494572965865577,3.3077300485975845,1.482763582558554,-0.9439065581499554
57,-0.9704630570087504,3.8629872019133678,2.5070943094809994,3.3076749423038327,1.4759895098999503,-0.9426664809029321
58,-0.9702937413397861,3.8687319202581474,2.519233814745413,3.307639687882289,1.4694093751484094,-0.9414744130052077
59,-0.9701369249039238,3.8742815642566075,2.531000227505461,3.3076224800683405,1.4630203051128516,-0.9403280902098848
60,-0.9699917137139976,3.879642411783043,2.5424021140276256,3.3076216212029075,1.4568193061341372,-0.9392253391934214
61,-0.9698572363034343,3.8848204320584228,2.553447864637854,3.307635519989634,1.4508032852736987,-0.9381640924056057
62,-0.9697326559247856,3.889821312326702,2.5641456981266466,3.3076626889818908,1.4449690689928714,-0.9371423966749889
63,-0.969617178643019,3.8946504818915093,2.5745036667148278,3.307701741161465,1.4393134195405992,-0.9361584170246757
64,-0.9695100582626978,3.89931313377222,2.5845296614183737,3.3077513858960317,1.4338330492584932,-0.9352104368783425
65,-0.9694105988461404,3.9038142442214094,2.5942314176832775,3.307810424500845,1.4285246330028973,-0.9342968556058121
66,-0.9693181554286066,3.9081585903262357,2.603616521186134,3.3078777455795545,1.4233848188736207,-0.9334161841656451
67,-0.9692321334120227,3.9123507658958836,2.612692413714962,3.307952320277989,1.4184102374283567,-0.9325670394436184
68,-0.9691519870167195,3.9163951958168353,2.6214663990592406,3.308033197551563,1.4135975095507327,-0.9317481377557773
69,-0.9690772170875483,3.920296149038144,2.629945648849362,3.308119499520378,1.4089432531285693,-0.9309582878785829
70,-0.9690073684834822,3.924057750330456,2.6381372082945136,3.3082104169649242,1.4044440886875162,-0.9301963838827109
71,-0.9689420272256936,3.927683990945519,2.6460480017750436,3.30830520499864,1.400096644113908,-0.929461397977921
72,-0.9688808175358695,3.9311787382874614,2.653684838251077,3.308403178940546,1.3958975585896323,-0.9287523735212475
73,-0.9688233988622048,3.9345457446932195,2.6610544164539136,3.308503710401134,1.3918434858511197,-0.9280684182970749
74,-0.9687694629634837,3.937788655407133,2.6681633298308003,3.3086062235870397,1.387931096874342,-0.9274086981433877
75,-0.9687187311005442,3.940911015823826,2.675018071217241,3.308710191824299,1.3841570820779956,-0.926772430971849
76,-0.9686709513680771,3.9439162780639716,2.6816250372142396,3.3088151342957874,1.380518153127885,-0.9261588812089051
77,-0.9686258961871966,3.946807806939257,2.687990532250888,3.308920612985472,1.3770110444169013,-0.9255673546696109
78,-0.9685833599697663,3.949588885355791,2.6941207723155904,3.30902622982007,1.3736325142869326,-0.9249971938643171
79,-0.9685431569584265,3.9522627191991155,2.7000218883420555,3.309131623997425,1.3703793460514975,-0.92444777372992
80,-0.9685051192411424,3.9548324417388883,2.705699929238984,3.3092364694902003,1.3672483488708582,-0.9239184977713862
81,-0.9684690949354497,3.9573011175870154,2.711160864555243,3.309340472713212,1.3642363585248076,-0.9234087945951656
82,-0.9684349465350882,3.959671746239511,2.716410586775179,3.30944337034278,1.3613402381222024,-0.9229181148134706
83,-0.9684025494101038,3.961947265229466,2.721454913241673,3.309544927276765,1.3585568787806086,-0.9224459282968611
84,-0.9683717904505701,3.9641305529162345,2.7262995877075236,3.309644934724426,1.3558832003040966,-0.9219917217518612
85,-0.9683425668436338,3.966224430934135,2.7309502815187603,3.30974320841582,1.3533161518822643,-0.921554996600227
86,-0.9683147849735255,3.9682316663225827,2.735412594436543,3.3098395869211323,1.3508527128289423,-0.9211352671368027
87,-0.968288359434359,3.970154973358564,2.7396920551073283,3.309933930071028,1.3484898933747331,-0.9207320589435192
88,-0.9682632121459205,3.9719970151116115,2.743794121193986,3.310026117469844,1.346224735523553,-0.9203449075379074
89,-0.9682392715631354,3.9737604047409656,2.7477241791834546,3.3101160470941764,1.3440543139796584,-0.9199733572354336
90,-0.9682164719704649,3.975447706554275,2.7514875438893363,3.3102036339701213,1.341975737148262,-0.9196169602059636
91,-0.9681947528530879,3.977061436847018,2.755089457670457,3.3102888089231253,1.3399861482097557,-0.919275275705696
92,-0.9681740583373329,3.978604064541722,2.758535089388872,3.3103715173950468,1.3380827262647805,-0.9189478694669277
93,-0.9681543366934365,3.980078011646004,2.761829533132982,3.310451718323652,1.3362626875448969,-0.9186343132290267
94,-0.9681355398942871,3.9814856535484124,2.764977806733345,3.3105293830803366,1.3345232866814416,-0.9183341843949658
95,-0.9681176232243778,3.9828293191709716,2.767984850100386,3.3106044944623885,1.3328618180232796,-0.9180470657987184
96,-0.9681005449337131,3.9841112909972107,2.7708555234144407,3.3106770457365875,1.3312756169926077,-0.917772545569724
97,-0.9680842659319104,3.9853338049942586,2.773594605199498,3.3107470397313588,1.3297620614667074,-0.9175102170815098
98,-0.9680687495181857,3.9864990504472906,2.7762067903124894,3.3108144879750845,1.3283185731726028,-0.9172596789723936
99,-0.9680539611433318,3.987609169724212,2.778696687880111,3.310879409878502,1.326942619080924,-0.9170205352270075
